!!!COM: Haydn, Franz Joseph
!!!OTL: String Quartet in D Major
!!!OPS: Opus 71
!!!ONM: No. 2
!!!OMD: Menuetto: Allegro
!!!OMV: 3
!!!SCT: H III:70
!!!SCA: Thematisch-bibliographisches Werkevererzeichnis (A. van Hoboken)
!!!YOR: Trautwein Edition
!!!ENC: Frances Bennion
!!!CDT: 1732/3/31/-1809/5/31/
!!!CNT: Oesterreich
!!!YEC: Copyright (c) 1994, 2000 Center for Computer Assisted Research in the Humanities
!!!YEM: Rights to all derivative editions reserved.
!!!YEM: Refer to licensing agreement for further details.
!!!YEN: United States of America
**kern	**kern	**kern	**kern
*k[f#c#]	*k[f#c#]	*k[f#c#]	*k[f#c#]
*D:	*D:	*D:	*D:
*clefF4	*clefC3	*clefF	*clefF
*M3/4	*M3/4	*M3/4	*M3/4
4D	2.r	2.r	2.r
4AA	.	.	.
4FF#	.	.	.
=2	=2	=2	=2
4DD	2.r	2.r	4a
2r	.	.	4dd
.	.	.	4ff#
=3	=3	=3	=3
4d	4D	4f#	4.aa
4d	4f#	4f#	.
.	.	.	16ff#
.	.	.	16dd
4d	4a	4f#	8a
.	.	.	8r
=4	=4	=4	=4
4c#	4e	4g	4.aa
4c#	4e	4g	.
.	.	.	16gg
.	.	.	16ee
4c#	4g	4e	8a
.	.	.	8r
=5	=5	=5	=5
4d	4d	4d	4ff#
4G	4B	4e	4gg
4A	4A	4c#	4ee
=6	=6	=6	=6
2.r	2.r	2.r	4dd
.	.	.	4ff#
.	.	.	4aa
=7	=7	=7	=7
4F#	4c	2.a	4.ddd
4F#	4c	.	.
.	.	.	16aa
.	.	.	16ff#
4F#	4c	.	8dd
.	.	.	8r
=8	=8	=8	=8
4G	4B	2.b	4.ddd
4G	4B	.	.
.	.	.	16bb
.	.	.	16gg
4G	4B	.	8dd
.	.	.	8r
=9	=9	=9	=9
2.A	2.A	4dd	4ff#
.	.	4ee	4gg
.	.	4cc#	4ee
=10	=10	=10	=10
4.d	4.d	4.dd	4.dd
16A	16A	16a	16a
16F#	16F#	16f#	16f#
8D	8D	8d	8d
8r	8r	8r	8r
=11	=11	=11	=11
2.r	2r	2r	4b
.	.	.	4dd
.	4d	4f	4g#
=12	=12	=12	=12
2.r	4c#	4e	4.a
.	4A	4c#	.
.	.	.	16cc#
.	.	.	16ee
.	4r	4r	8aa
.	.	.	8r
=13	=13	=13	=13
4B	2.r	2r	2r
4d	.	.	.
4G#	.	[4d	4f
=14	=14	=14	=14
4.A	2.r	4d]	4e
.	.	4c#	4a
16E	.	.	.
16C#	.	.	.
8AA	.	[4c	4f#
8r	.	.	.
=15	=15	=15	=15
4.G	2r	4c]	4d
.	.	2B	4g
16D	.	.	.
16BB	.	.	.
8GG	4G	.	4e
8r	.	.	.
=16	=16	=16	=16
4G	4E	2A	4c#
4F#	4F#	.	4d
4C#	4A	[4e	4e
=17	=17	=17	=17
4.D	2A	4e]	4g
.	.	4d	4f#
16AA	.	.	.
16FF#	.	.	.
8DD	4F#	[4f#	[4a
8r	.	.	.
=18	=18	=18	=18
8GG	4B	4f#]	4a]
16BB	.	.	.
16D	.	.	.
4G	4G	4e	4g
4G#	4G#	4d	4f#
=19	=19	=19	=19
2A	2A	4c#	4e
.	.	4d	4f#
4r	4G	4e	4g
=20	=20	=20	=20
4D	4F#	4f#	4a
2r	2r	2r	4dd
.	.	.	4ff#
=21	=21	=21	=21
4D	4F#	4A	4.aa
2r	4A	4d	.
.	.	.	16ff#
.	.	.	16dd
.	4d	4f#	8a
.	.	.	8r
=22	=22	=22	=22
4C#	4E	4G	4.aa
2r	4c#	4e	.
.	.	.	16gg
.	.	.	16ee
.	4e	4g	8a
.	.	.	8r
=23	=23	=23	=23
4D	4d	4d	4ff#
4GG	4B	4e	4gg
4AA	4A	4c#	4ee
=24	=24	=24	=24
2.r	2.r	2.r	4dd
.	.	.	4ff#
.	.	.	4aa
=25	=25	=25	=25
4FF#	4A	4c	4.ddd
2r	4f#	4a	.
.	.	.	16aa
.	.	.	16ff#
.	4a	4cc	8dd
.	.	.	8r
=26	=26	=26	=26
4GG	4G	4B	4.ddd
2r	4B	4g	.
.	.	.	16bb
.	.	.	16gg
.	4g	4b	8dd
.	.	.	8r
=27	=27	=27	=27
2.AA	4A	4dd	4ff#
.	2r	4ee	4gg
.	.	4cc#	4ee
=28	=28	=28	=28
4.D	4.d	4.dd	4.dd
16AA	16A	16a	16a
16FF#	16F#	16f#	16f#
8DD	8D	8d	8d
8r	8r	8r	8r
=29	=29	=29	=29
2.r	4r	2.d	2.f#
.	4A#	.	.
.	4B	.	.
=30	=30	=30	=30
2.r	4r	2.e	2.g
.	4D#	.	.
.	4E	.	.
=31	=31	=31	=31
2.r	4r	2.c#	2.e
.	4G#	.	.
.	4A	.	.
=32	=32	=32	=32
2.r	4r	2.f#	2.a
.	4C#	.	.
.	4D	.	.
=33	=33	=33	=33
2.e	2.g	2.a#	4r
.	.	.	4dd
.	.	.	4cc#
=34	=34	=34	=34
2.d	2.f#	2.b	4r
.	.	.	4ee
.	.	.	4dd
=35	=35	=35	=35
2.B	2.d	2.g#	4r
.	.	.	4ff#
.	.	.	4ee
=36	=36	=36	=36
2.A	2.c#	2.a	4r
.	.	.	4bb
.	.	.	4aa
=37	=37	=37	=37
2.r	4r	4r	2.gg
.	4b	4dd	.
.	4a#	4cc#	.
=38	=38	=38	=38
4r	2.r	4r	2.ff#
4A#	.	4c#	.
4B	.	4d	.
=39	=39	=39	=39
2.r	4r	4r	2.ff
.	4a	4cc	.
.	4g#	4b	.
=40	=40	=40	=40
4r	2.r	4r	2.ee
4G#	.	4B	.
4A	.	4c#	.
=41	=41	=41	=41
2.r	4r	2.f#	2.dd
.	4A#	.	.
.	4B	.	.
=42	=42	=42	=42
2.r	4r	2.g	2.ee
.	4D#	.	.
.	4E	.	.
=43	=43	=43	=43
4r	2.r	2.e	2.cc#
4GG#	.	.	.
4AA	.	.	.
=44	=44	=44	=44
4r	2.r	2.f#	2.dd
4CC#	.	.	.
4DD	.	.	.
=45	=45	=45	=45
2.r	2.g	2.b	4r
.	.	.	4c#
.	.	.	4d
=46	=46	=46	=46
2.r	2.f#	2.a	4r
.	.	.	4ccc#
.	.	.	4ddd
=47	=47	=47	=47
2.r	2.e	2.g	4r
.	.	.	4G#
.	.	.	4A
=48	=48	=48	=48
2.r	2.d	2.f#	4r
.	.	.	4ccc#
.	.	.	4ddd
==	==	==	==
*-	*-	*-	*-
!!!RWG1: This file contains only pitch and duration data.
!!!RWG2: Transposing instruments are not transposed.
!!!RWG3: Spines may have incompatible meters.
!!!RWG4: Durations of rests and tied notes may be interpreted.
!!!RWG: Key is interpreted using the Humdrum key tool.
!!!GTL: 6 Quartetti ("Apponyi")
!!!AFT: stage1
!!!END: 1997/04/15
!!!KEY: 1717819312
!!!EMD: Converted from MuseData to Humdrum Dec 16, 2000, by Andreas Kornstaedt using muse2kern.
!!!EMD: Manual editing by Craig Sapp, Nov 2001
